packages/foundations/assets/icons/functional/images/audio & video/microphone_12.svg

<svg width="12" height="12" viewBox="0 0 12 12" fill="none" xmlns="http://www.w3.org/2000/svg">
<g clip-path="url(#clip0_231_88)">
<path fill-rule="evenodd" clip-rule="evenodd" d="M4.79601 10.816C4.63635 10.816 4.48323 10.7526 4.37033 10.6397C4.25744 10.5268 4.19401 10.3737 4.19401 10.214C4.19401 9.90499 4.46401 9.61199 4.79601 9.61199H5.39801V9.00999C4.11801 8.80999 2.92001 7.94399 2.43801 6.84299C2.37409 6.69659 2.37095 6.5308 2.42928 6.38208C2.4876 6.23336 2.60261 6.11391 2.74901 6.04999C2.89541 5.98607 3.06121 5.98293 3.20992 6.04125C3.35864 6.09958 3.47809 6.21459 3.54201 6.36099C3.89701 7.17299 4.97001 7.80599 6.00001 7.80599C7.03101 7.80599 8.10301 7.17399 8.45801 6.36099C8.48966 6.2885 8.53528 6.22295 8.59226 6.16809C8.64924 6.11323 8.71646 6.07013 8.7901 6.04125C8.86374 6.01238 8.94234 5.99828 9.02143 5.99978C9.10051 6.00128 9.17852 6.01834 9.25101 6.04999C9.3235 6.08164 9.38905 6.12726 9.44391 6.18424C9.49877 6.24122 9.54187 6.30844 9.57075 6.38208C9.59963 6.45572 9.61372 6.53432 9.61222 6.6134C9.61072 6.69249 9.59366 6.7705 9.56201 6.84299C9.08001 7.94499 7.88201 8.80999 6.60201 9.00999V9.61199H7.20401C7.53601 9.61199 7.80601 9.88199 7.80601 10.214C7.80601 10.523 7.53601 10.816 7.20401 10.816H4.79601ZM6.00001 1.18399C6.96201 1.18399 7.80601 1.99099 7.80601 2.98999V5.09699C7.80601 6.09399 6.99701 6.90299 6.00001 6.90299C5.03801 6.90299 4.19401 6.09599 4.19401 5.09699V2.98999C4.19401 1.99299 5.00301 1.18399 6.00001 1.18399ZM6.00001 2.38799C5.84171 2.39228 5.69107 2.45708 5.57909 2.56906C5.4671 2.68104 5.4023 2.83168 5.39801 2.98999V5.09699C5.39801 5.42899 5.66801 5.69899 6.00001 5.69899C6.30901 5.69899 6.60201 5.42899 6.60201 5.09699V2.98999C6.60201 2.83033 6.53859 2.67721 6.42569 2.56431C6.31279 2.45142 6.15967 2.38799 6.00001 2.38799Z" fill="#1A1C1F"/>
</g>
<defs>
<clipPath id="clip0_231_88">
<rect width="12" height="12" fill="white"/>
</clipPath>
</defs>
</svg>

<svg xmlns="http://www.w3.org/2000/svg" width="12" height="12" fill="none"><g clip-path="url(#a)"><path fill="#1A1C1F" fill-rule="evenodd" d="M4.796 10.816a.6.6 0 0 1-.602-.602c0-.309.27-.602.602-.602h.602V9.01c-1.28-.2-2.478-1.066-2.96-2.167a.602.602 0 1 1 1.104-.482C3.897 7.173 4.97 7.806 6 7.806s2.103-.632 2.458-1.445a.602.602 0 0 1 1.104.482C9.08 7.945 7.882 8.81 6.602 9.01v.602h.602c.332 0 .602.27.602.602 0 .309-.27.602-.602.602zM6 1.184c.962 0 1.806.807 1.806 1.806v2.107c0 .997-.809 1.806-1.806 1.806-.962 0-1.806-.807-1.806-1.806V2.99c0-.997.809-1.806 1.806-1.806m0 1.204a.62.62 0 0 0-.602.602v2.107c0 .332.27.602.602.602.309 0 .602-.27.602-.602V2.99A.6.6 0 0 0 6 2.388" clip-rule="evenodd"/></g><defs><clipPath id="a"><path fill="#fff" d="M0 0h12v12H0z"/></clipPath></defs></svg>
